X:2987
T:Jenny my blithest maid
O:england
C:Samuel Akeroyde
M:3/4
A:North-West
R:Slow air
K:C
EG3 c2| d3c A2| Ac2A cA| GE D>C D2|\
E2G2 c2| d3c A2| gedcde| A2c2 c2||
e3f ge| d2d2 A2| de dB A>G| G2AB A>G|\
c3A GE| D2d2 d2| ed/c/ fA cG| E2c2 c2|]


